icons/nuxt.svg

<svg width="16" height="16" viewBox="0 0 16 16" fill="none" xmlns="http://www.w3.org/2000/svg">
<path d="M8.77191 12.5768H13.532C13.6839 12.5768 13.8293 12.5235 13.9609 12.4482C14.0925 12.3729 14.2281 12.2784 14.304 12.148C14.3799 12.0176 14.4327 11.8697 14.4326 11.7191C14.4325 11.5685 14.38 11.4207 14.304 11.2903L11.0877 5.75825C11.0117 5.62788 10.919 5.53332 10.7875 5.45806C10.6559 5.3828 10.4676 5.32941 10.3157 5.32941C10.1638 5.32941 10.0184 5.3828 9.8869 5.45806C9.75537 5.53332 9.66262 5.62788 9.58671 5.75825L8.77191 7.17342L7.14232 4.42875C7.06633 4.29839 6.9737 4.16103 6.84213 4.08577C6.71056 4.01051 6.56519 4 6.41329 4C6.2614 4 6.11602 4.01051 5.98445 4.08577C5.85288 4.16103 5.71737 4.29839 5.64138 4.42875L1.65316 11.2903C1.57713 11.4206 1.56748 11.5685 1.56739 11.719C1.56731 11.8696 1.57725 12.0175 1.65316 12.1479C1.72906 12.2783 1.86466 12.3728 1.99623 12.4481C2.1278 12.5234 2.27318 12.5768 2.42507 12.5768H5.42696C6.61643 12.5768 7.48218 12.0432 8.08577 11.0329L9.54383 8.50278L10.3157 7.17338L12.6744 11.2045H9.54383L8.77191 12.5768V12.5768ZM5.38407 11.2045H3.28275L6.41329 5.80113L8 8.50283L6.94896 10.335C6.54812 10.9905 6.09115 11.2045 5.38407 11.2045Z" fill="#52C38F"/>
</svg>

<svg xmlns="http://www.w3.org/2000/svg" width="16" height="16" fill="none" viewBox="0 0 16 16"><path fill="#52C38F" d="M8.772 12.577h4.76a.9.9 0 0 0 .429-.129c.131-.075.267-.17.343-.3a.87.87 0 0 0 .129-.429.87.87 0 0 0-.129-.429l-3.216-5.532a.8.8 0 0 0-.3-.3 1.04 1.04 0 0 0-.472-.129.9.9 0 0 0-.43.13.8.8 0 0 0-.3.3l-.814 1.414-1.63-2.744c-.076-.13-.168-.268-.3-.343S6.565 4 6.413 4s-.297.01-.429.086a1 1 0 0 0-.343.343L1.653 11.29c-.076.13-.086.279-.086.429s.01.299.086.429.212.225.343.3a.9.9 0 0 0 .43.129h3.001c1.19 0 2.055-.534 2.659-1.544l1.458-2.53.772-1.33 2.358 4.031h-3.13zm-3.388-1.373H3.283l3.13-5.403L8 8.503l-1.051 1.832c-.4.656-.858.87-1.565.87"/></svg>
